remix/Others/door-lock-box-line.svg

<svg viewBox="0 0 24 24" fill="currentColor" xmlns="http://www.w3.org/2000/svg"><path d="M4 3H20C20.5523 3 21 3.44772 21 4V20C21 20.5523 20.5523 21 20 21H4C3.44772 21 3 20.5523 3 20V4C3 3.44772 3.44772 3 4 3ZM5 5V19H19V5H5ZM11 12.792C10.117 12.4062 9.5 11.5252 9.5 10.5C9.5 9.11929 10.6193 8 12 8C13.3807 8 14.5 9.11929 14.5 10.5C14.5 11.5252 13.883 12.4062 13 12.792V16H11V12.792Z"/></svg>

<svg viewBox="0 0 24 24" xmlns="http://www.w3.org/2000/svg"><path fill="none" d="M0 0h24v24H0Z"/><path d="M4 3h16v0c.55 0 1 .44 1 1v16 0c0 .55-.45 1-1 1H4v0c-.56 0-1-.45-1-1V4v0c0-.56.44-1 1-1Zm1 2v14h14V5H5Zm6 7.792v0c-1.27-.56-1.85-2.03-1.3-3.3s2.02-1.85 3.29-1.3c1.26.55 1.84 2.02 1.29 3.29 -.26.57-.72 1.03-1.3 1.29v3.2h-2V12.76Z"/></svg>
